X:409
T:Elizabeth's Big Coat
M:C|
L:1/8
K:AMix
f|"A"ed ~c2 "G"(dcB)d|"A"cA A/A/A "G"~g2 fa|"A"ed ~c2 "G"(dB)Bd|"Em"egdB "A"A3  d:|
"A"~c2(ce) "G"dBBd|"A"~c2(Af) "G"~g2(fa)|"A"~c2(ce) "G"dBBd|"A"eg"G"dB "A"~A3 z:|



